resources/svg/steam-line.svg

<svg fill="currentColor" viewBox="0 0 24 24" xmlns="http://www.w3.org/2000/svg"><path d="M17.0011 4C19.7625 4 22.0011 6.23858 22.0011 9C22.0011 11.7614 19.7625 14 17.0011 14C16.6966 14 16.3985 13.9728 16.1091 13.9207L13.4577 15.9089C13.4863 16.1018 13.5011 16.2992 13.5011 16.5C13.5011 18.7091 11.7102 20.5 9.50106 20.5C7.29192 20.5 5.50106 18.7091 5.50106 16.5C5.50106 16.3225 5.51262 16.1477 5.53503 15.9764L1.70898 14.4303L2.4582 12.576L6.28509 14.121C7.01383 13.1375 8.183 12.5 9.50106 12.5C9.66379 12.5 9.82424 12.5097 9.98188 12.5286L12.0226 9.4676C12.0084 9.31365 12.0011 9.15768 12.0011 9C12.0011 6.23858 14.2396 4 17.0011 4ZM9.50106 14.5C9.03676 14.5 8.6094 14.6582 8.26998 14.9237L9.87567 15.5728C10.3877 15.7797 10.6351 16.3625 10.4282 16.8746C10.2214 17.3867 9.63853 17.6341 9.12646 17.4272L7.52032 16.7787C7.65592 17.7513 8.49106 18.5 9.50106 18.5C10.6056 18.5 11.5011 17.6046 11.5011 16.5C11.5011 15.3954 10.6056 14.5 9.50106 14.5ZM12.8647 11.8099L11.8821 13.2855C12.1661 13.4963 12.4213 13.7438 12.6405 14.021L14.0009 13.0002C13.5599 12.669 13.1755 12.2665 12.8647 11.8099ZM17.0011 6C15.3442 6 14.0011 7.34315 14.0011 9C14.0011 10.6569 15.3442 12 17.0011 12C18.6579 12 20.0011 10.6569 20.0011 9C20.0011 7.34315 18.6579 6 17.0011 6ZM17.0011 7C18.1056 7 19.0011 7.89543 19.0011 9C19.0011 10.1046 18.1056 11 17.0011 11C15.8965 11 15.0011 10.1046 15.0011 9C15.0011 7.89543 15.8965 7 17.0011 7Z"/></svg>

<svg xmlns="http://www.w3.org/2000/svg" viewBox="0 0 24 24" fill="currentColor">
    <g>
        <path fill="none" d="M0 0H24V24H0z"/>
        <path d="M17 4c2.761 0 5 2.239 5 5s-2.239 5-5 5c-.304 0-.603-.027-.892-.08l-2.651 1.989c.028.193.043.39.043.591 0 2.21-1.79 4-4 4s-4-1.79-4-4c0-.177.012-.352.034-.524L1.708 14.43l.75-1.854 3.826 1.545C7.013 13.138 8.182 12.5 9.5 12.5c.163 0 .323.01.48.029l2.042-3.061C12.007 9.314 12 9.158 12 9c0-2.761 2.239-5 5-5zM9.5 14.5c-.464 0-.892.158-1.231.424l1.606.649c.512.207.76.79.552 1.302-.207.512-.79.76-1.302.552L7.52 16.78c.136.972.971 1.721 1.981 1.721 1.105 0 2-.895 2-2s-.895-2-2-2zm3.364-2.69l-.983 1.476c.284.21.54.458.758.735l1.36-1.02c-.44-.332-.825-.735-1.135-1.191zM17 6c-1.657 0-3 1.343-3 3s1.343 3 3 3 3-1.343 3-3-1.343-3-3-3zm0 1c1.105 0 2 .895 2 2s-.895 2-2 2-2-.895-2-2 .895-2 2-2z"/>
    </g>
</svg>
